X: 38
T:2nd part for B music
% Nottingham Music Database
S:
M:4/4
L:1/4
K:D
"D"fd/2A/2 F/2A/2d/2f/2|"A"e/2c/2A/2G/2 G/2A/2c/2d/2|\
"A"ec/2A/2 "A7"G/2A/2c/2e/2|"D"dA/2d/2 "A7"c/2G/2A/2d/2|
"D"fd/2A/2 F/2A/2d/2f/2|"A"e/2c/2A/2G/2 G/2A/2c/2d/2|\
"A"ec/2A/2 "A7"G/2A/2c/2e/2|"A7"d/2A/2c/2A/2 "D"A2:|


